build/images/cloth.svg

<?xml version="1.0" encoding="UTF-8"?>
<svg width="33px" height="32px" viewBox="0 0 33 32" version="1.1" xmlns="http://www.w3.org/2000/svg" xmlns:xlink="http://www.w3.org/1999/xlink">
    <!-- Generator: sketchtool 63.1 (101010) - https://sketch.com -->
    <title>B7F17583-D9FC-4FBA-BB3F-31B8F55F371C</title>
    <desc>Created with sketchtool.</desc>
    <g id="Page-1" stroke="none" stroke-width="1" fill="none" fill-rule="evenodd">
        <g id="Kupa-shop-main-1" transform="translate(-846.000000, -163.000000)" fill="#2C2525" fill-rule="nonzero">
            <g id="header" transform="translate(0.000000, 20.000000)">
                <g id="cloth" transform="translate(846.881250, 143.000000)">
                    <path d="M24.025042,0 C21.9507142,0.0166859357 19.8916787,0.356409693 17.9221475,1.00692688 C15.7964285,1.69365195 13.7776859,2.67494587 11.9249631,3.92210818 C10.3356403,4.97737096 8.88559027,6.22825953 7.60899778,7.64528431 C7.55219361,7.70986309 7.51156918,7.787005 7.49047424,7.87034953 C7.04887288,9.63824518 6.71017515,11.4302139 6.47608357,13.2372484 C6.10918007,12.8193122 5.8963135,12.2886448 5.87278808,11.7332581 C5.87278856,11.5393789 5.76746448,11.3607706 5.59771149,11.266784 C5.42795855,11.1727974 5.22051837,11.1782383 5.05593665,11.2809943 C4.87014299,11.3972602 0.556313232,14.2063089 2.11527151,22.8574534 C0.823763475,25.5508239 0.103601924,28.4818326 0,31.4664649 C0,31.6715534 0.117576778,31.8585182 0.302618468,31.9473588 C0.487660153,32.0361994 0.707305762,32.0111759 0.867570998,31.8829955 L3.53702011,29.7496759 C3.62818401,29.6767341 3.69288728,29.5759404 3.72121209,29.4627444 C4.09767896,28.0671635 4.60350138,26.70966 5.23212029,25.4078371 C5.5891456,25.4631001 5.94982768,25.4914467 6.31111162,25.4926365 C8.04193768,25.4304571 9.75229697,25.0975262 11.3798616,24.5059762 C11.6284263,24.4234848 11.7803795,24.1730491 11.7385895,23.9147528 C11.6967995,23.6564565 11.4736091,23.4665884 11.2116863,23.4665162 C10.4990665,23.4069369 9.86083885,23.0024858 9.50323886,22.3838565 C11.1501803,22.9043059 12.9180313,22.9026291 14.5639805,22.3790565 C14.6225122,22.3624155 14.677765,22.3359004 14.7273508,22.300657 C17.2007598,20.4951936 19.541948,18.515594 21.733053,16.3769616 C21.8856963,16.2244323 21.9313514,15.9950779 21.8487352,15.7958163 C21.766119,15.5965547 21.5714958,15.4666135 21.3555929,15.4665675 C20.3074238,15.4292486 19.2798634,15.1650308 18.3439204,14.6921724 C19.8532269,14.8297716 21.9209822,14.7775052 23.2770624,13.7599118 C24.9219769,12.5273863 26.9336738,10.3386004 29.2566284,7.25328682 C30.3555999,5.72327322 31.2744329,4.07185996 31.9949493,2.33171838 C32.0848267,2.10778072 32.0130161,1.85145826 31.8198334,1.70665572 C31.7269366,1.6367895 29.4792604,0 24.025042,0 Z M2.73191426,29.0270139 L1.14145648,30.2984724 C1.38199135,27.8225485 2.06211268,25.4092231 3.14994999,23.1715847 C5.00254767,19.4665418 12.5613598,10.7161979 19.3513705,7.54395162 C15.6509802,10.181268 8.78035205,15.9342978 4.32717704,24.8281075 C3.66583547,26.1751271 3.131766,27.5808564 2.73191426,29.0270139 Z M28.4029386,6.61329092 C27.625595,7.64581764 26.888827,8.56527841 26.1899652,9.38660647 C24.6221559,9.86346368 22.99436,10.1148744 21.3555929,10.1332684 C21.0607337,10.1332684 20.8217031,10.3720483 20.8217031,10.6665983 C20.8217031,10.9611482 21.0607337,11.1999282 21.3555929,11.1999282 C22.5527729,11.1920327 23.7459371,11.0606702 24.9161041,10.8079307 C24.2156351,11.5690926 23.4533082,12.2710393 22.6369285,12.9065839 C20.7325435,14.3343081 16.7203615,13.3588477 16.6797858,13.3492477 C16.4606121,13.2947012 16.2307924,13.3838375 16.105888,13.5718358 C15.9809837,13.7598341 15.9880255,14.0060092 16.1234727,14.1865757 C17.1434929,15.4084194 18.5853725,16.2034003 20.1639508,16.4142947 C18.2698915,18.1865991 16.2715421,19.8442965 14.1795798,21.3785296 C10.825684,22.302257 8.9399851,20.9625322 8.86257108,20.9065326 C8.68518987,20.7735528 8.4439824,20.7639656 8.25658552,20.8824469 C8.06918865,21.0009281 7.97462971,21.2228027 8.01902516,21.4398625 C8.17528083,22.4394037 8.71559607,23.3386657 9.52512835,23.9465131 C8.30399035,24.3052582 7.03166646,24.458815 5.76013732,24.4009102 C9.23120513,18.0698347 14.0893628,12.6040087 19.9717505,8.41167939 C20.4277943,8.09815308 20.5602705,7.48393014 20.2739321,7.01062171 C19.9992216,6.52439784 19.3929634,6.33600273 18.8906236,6.5807578 C12.3771678,9.62500494 5.64748657,17.15029 2.97216468,21.3459964 C2.38168253,16.3006955 4.01698706,13.7641784 4.98119207,12.7465849 C5.31923199,13.5927916 5.89723489,14.3219982 6.64425887,14.8447048 C6.80824702,14.9540015 7.01918241,14.9641315 7.19290984,14.8710532 C7.36663726,14.7779749 7.47488161,14.5968374 7.47445754,14.3999077 C7.47445754,12.5583195 8.32067291,8.97540911 8.49525488,8.25594706 C8.96438168,7.73815982 9.4593945,7.24437808 9.9784008,6.77648988 C9.74058807,7.69906913 9.61687101,8.64728849 9.61001683,9.59993844 C9.61001683,9.89448839 9.84904747,10.1332684 10.1439066,10.1332684 C10.4387658,10.1332684 10.6777965,9.89448839 10.6777965,9.59993844 C10.7007794,8.20696236 10.975706,6.82961519 11.489309,5.53436451 C12.8741709,4.49134772 14.3722868,3.6075544 15.9552974,2.89971474 C15.7616915,3.29630793 15.6085815,3.71137954 15.4982877,4.13864013 C15.4275215,4.42464815 15.6022528,4.71381064 15.8885611,4.78450263 C16.1748694,4.85519462 16.4643355,4.6806465 16.5351017,4.39463849 C16.7530564,3.62943805 17.0979269,2.90616788 17.5553652,2.25491887 C19.6282209,1.4928455 21.8163964,1.09095226 24.025042,1.06665983 C27.9101582,1.06665983 30.0409125,1.94238754 30.8251967,2.35305158 C30.170633,3.85458967 29.3586833,5.2826373 28.4029386,6.61329092 Z" id="Shape"></path>
                </g>
            </g>
        </g>
    </g>
</svg>

<svg width="33" height="32" xmlns="http://www.w3.org/2000/svg"><g id="Page-1" stroke="none" stroke-width="1" fill="none" fill-rule="evenodd"><g id="Kupa-shop-main-1" transform="translate(-846 -163)" fill="#2C2525" fill-rule="nonzero"><g id="header" transform="translate(0 20)"><g id="cloth" transform="translate(846.881 143)"><path d="M24.025 0a19.972 19.972 0 00-6.103 1.007 23.892 23.892 0 00-5.997 2.915 22.737 22.737 0 00-4.316 3.723.542.542 0 00-.119.225 47.13 47.13 0 00-1.014 5.367 2.436 2.436 0 01-.603-1.504.533.533 0 00-.817-.452c-.186.116-4.5 2.925-2.94 11.576A21.648 21.648 0 000 31.467a.533.533 0 00.868.416l2.669-2.133a.533.533 0 00.184-.287 23.252 23.252 0 011.511-4.055 7.36 7.36 0 001.08.085 16.581 16.581 0 005.068-.987.533.533 0 00-.168-1.04 2.183 2.183 0 01-1.709-1.082 8.373 8.373 0 005.061-.005.534.534 0 00.163-.078 64.33 64.33 0 007.006-5.924.533.533 0 00-.377-.91 7.25 7.25 0 01-3.012-.775c1.51.138 3.577.086 4.933-.932 1.645-1.233 3.657-3.421 5.98-6.507a24.507 24.507 0 002.738-4.921.533.533 0 00-.175-.625C31.727 1.637 29.48 0 24.025 0zM2.732 29.027l-1.59 1.271a20.91 20.91 0 012.008-7.126c1.853-3.705 9.41-12.456 16.2-15.628-3.7 2.637-10.57 8.39-15.024 17.284a24.101 24.101 0 00-1.595 4.199zm25.67-22.414a59.51 59.51 0 01-2.212 2.774 17.28 17.28 0 01-4.834.746.534.534 0 100 1.067c1.197-.008 2.39-.14 3.56-.392-.7.761-1.463 1.463-2.28 2.099-1.903 1.427-5.916.452-5.956.442a.534.534 0 00-.557.838 6.36 6.36 0 004.041 2.227 65.152 65.152 0 01-5.984 4.965c-3.354.923-5.24-.416-5.317-.472a.534.534 0 00-.844.533c.156 1 .697 1.899 1.506 2.507a11.501 11.501 0 01-3.765.454A47.931 47.931 0 0119.972 8.41c.456-.313.588-.927.302-1.4a1.057 1.057 0 00-1.383-.43C12.377 9.625 5.647 17.15 2.972 21.346c-.59-5.045 1.045-7.582 2.01-8.6a4.68 4.68 0 001.662 2.099.534.534 0 00.83-.445c0-1.842.847-5.425 1.021-6.144.47-.518.964-1.012 1.483-1.48A11.699 11.699 0 009.61 9.6a.534.534 0 001.068 0c.023-1.393.298-2.77.811-4.066A23.09 23.09 0 0115.955 2.9a6.564 6.564 0 00-.457 1.239.533.533 0 101.037.256 7.112 7.112 0 011.02-2.14 19.367 19.367 0 016.47-1.188c3.885 0 6.016.875 6.8 1.286a23.184 23.184 0 01-2.422 4.26z" id="Shape"/></g></g></g></g></svg>
